exported-svg/codesandbox.svg

<svg height="24" viewBox="0 0 24 24" width="24" xmlns="http://www.w3.org/2000/svg"><path d="m11.2001972 21.97821c-.3291827-.0396688-.6520457-.1450232-.9481833-.3160005l-3.28118042-1.8749629c-.16086724-.0092796-.30134347-.0946107-.38601657-.2205812l-3.33473331-1.9055646c-.7727101-.4461238-1.24908481-1.270252-1.25000026-2.1630129v-3.9913417c-.00011098-.0060765-.00011126-.01216 0-.0182478v-3.99092332c.00041869-.40808412.10029581-.80191869.28267858-1.15196198.01092433-.04725841.02896522-.09371389.05451779-.13788695.02871568-.04964116.06465956-.09249592.1057319-.12800353.2074654-.30037204.48159247-.55672882.80900226-.74575626l3.33286699-1.90449271c.08954792-.13373436.23437923-.21158712.38603267-.22058978l3.27916977-1.87380864c.7735027-.44658199 1.7264973-.44658199 2.4980695-.00110887l3.2811011 1.87491756c.1516533.00900286.2964845.08685575.3860322.22059017l3.334797 1.90560099c.3266565.18859494.6003548.44474315.8075625.74507215.040868.03542447.0766401.07813547.1052414.12757892.0254985.04407957.043517.09043192.0544483.1375869.1823594.35012809.2823291.74426639.282748 1.15277488v3.99040797c.0001113.0060903.000111.0121738 0 .0182499v3.991855c-.0009154.892248-.4772901 1.7163762-1.2519305 2.1636087l-3.3328033 1.9044563c-.0846733.1259705-.2251497.2113015-.386017.2205808l-3.2792492 1.873854c-.2969856.1714648-.6204313.2770958-.9499093.3169558-.0835816.0628101-.1874894.1000315-.3000907.1000315-.1125094 0-.2163396-.0371607-.2998861-.0998779zm.7998861-1.0681639c.0864322-.0305399.1707847-.0692311.2519306-.1160797l3.2480694-1.8560371v-4.8398414c0-.1785755.0952389-.3435952.2498612-.4329325l4.2501386-2.4556356v-3.71091902c-.0001083-.10568635-.0113347-.2097798-.0328374-.31084129l-7.9671624 4.60872511zm-1 .0002312v-9.1137927l-7.96720122-4.60874761c-.02148274.10092607-.03269069.20485335-.03279901.31035094v3.71143157l4.25013907 2.4556359c.15462231.0893373.2498612.254357.2498612.4329325v4.8398418l3.24999996 1.8571455c.0804668.0464575.164171.0848601.25.1152021zm8.4447326-14.57556879c-.0601916-.04874074-.1245766-.09310825-.192802-.13249901l-3.3027619-1.88729518-4.1990299 2.42610615c-.154771.08942328-.3455065.08942328-.5002776 0l-4.19903011-2.42610631-3.30083132 1.88618662c-.06888644.03977155-.13384763.08455013-.19453105.13372417l7.94453128 4.59563385zm.5552672 6.02972559-3.4999998 2.0222221v3.9798454l2.7500003-1.5714265c.4636261-.2676743.7494509-.7621512.7499995-1.2969872zm-17.00000003-.0000003v3.1331413c.00054912.5353488.28637395 1.0298257.74806974 1.2963913l2.75193053 1.5725339v-3.9798441zm5.05579894-8.62378604 3.44420129 1.98998299 3.4442025-1.98998365-2.6942025-1.53954647c-.4641016-.26794919-1.0358983-.26794919-1.5019305.00110887z"/></svg>

<?xml version="1.0" encoding="UTF-8"?>
<svg width="24px" height="24px" viewBox="0 0 24 24" version="1.1" xmlns="http://www.w3.org/2000/svg" xmlns:xlink="http://www.w3.org/1999/xlink">
    <!-- Generator: Sketch 55.2 (78181) - https://sketchapp.com -->
    <title>codesandbox</title>
    <desc>Created with Sketch.</desc>
    <g id="codesandbox" stroke="none" stroke-width="1" fill="none" fill-rule="evenodd">
        <path d="M11.2001972,21.97821 C10.8710145,21.9385412 10.5481515,21.8331868 10.2520139,21.6622095 L6.97083348,19.7872466 C6.80996624,19.777967 6.66949001,19.6926359 6.58481691,19.5666654 L3.2500836,17.6611008 C2.4773735,17.214977 2.00099879,16.3908488 2.00008334,15.4980879 L2.00008334,11.5067462 C1.99997236,11.5006697 1.99997208,11.4945862 2.00008334,11.4884984 L2.00008334,7.49757508 C2.00050203,7.08949096 2.10037915,6.69565639 2.28276192,6.3456131 C2.29368625,6.29835469 2.31172714,6.25189921 2.33727971,6.20772615 C2.36599539,6.15808499 2.40193927,6.11523023 2.44301161,6.07972262 C2.65047701,5.77935058 2.92460408,5.5229938 3.25201387,5.33396636 L6.58488086,3.42947365 C6.67442878,3.29573929 6.81926009,3.21788653 6.97091353,3.20888387 L10.2500833,1.33507523 C11.023586,0.888493241 11.9765806,0.888493241 12.7481528,1.33396636 L16.0292539,3.20888392 C16.1809072,3.21788678 16.3257384,3.29573967 16.4152861,3.42947409 L19.7500831,5.33507508 C20.0767396,5.52367002 20.3504379,5.77981823 20.5576456,6.08014723 C20.5985136,6.1155717 20.6342857,6.1582827 20.662887,6.20772615 C20.6883855,6.25180572 20.706404,6.29815807 20.7173353,6.34531305 C20.8996947,6.69544114 20.9996644,7.08957944 21.0000833,7.49808793 L21.0000833,11.4884959 C21.0001946,11.4945862 21.0001943,11.5006697 21.0000833,11.5067458 L21.0000833,15.4986008 C20.9991679,16.3908488 20.5227932,17.214977 19.7481528,17.6622095 L16.4153495,19.5666658 C16.3306762,19.6926363 16.1901998,19.7779673 16.0293325,19.7872466 L12.7500833,21.6611006 C12.4530977,21.8325654 12.129652,21.9381964 11.800174,21.9780564 C11.7165924,22.0408665 11.6126846,22.0780879 11.5000833,22.0780879 C11.3875739,22.0780879 11.2837437,22.0409272 11.2001972,21.97821 Z M12.0000833,20.9100461 C12.0865155,20.8795062 12.170868,20.840815 12.2520139,20.7939664 L15.5000833,18.9379293 L15.5000833,14.0980879 C15.5000833,13.9195124 15.5953222,13.7544927 15.7499445,13.6651554 L20.0000831,11.2095198 L20.0000831,7.49860078 C19.9999748,7.39291443 19.9887484,7.28882098 19.9672457,7.18775949 L12.0000833,11.7964846 L12.0000833,20.9100461 Z M11.0000833,20.9102773 L11.0000833,11.7964846 L3.03288208,7.18773699 C3.01139934,7.28866306 3.00019139,7.39259034 3.00008307,7.49808793 L3.00008307,11.2095195 L7.25022214,13.6651554 C7.40484445,13.7544927 7.50008334,13.9195124 7.50008334,14.0980879 L7.50008334,18.9379297 L10.7500833,20.7950752 C10.8305501,20.8415327 10.9142543,20.8799353 11.0000833,20.9102773 Z M19.4448159,6.33470851 C19.3846243,6.28596777 19.3202393,6.24160026 19.2520139,6.2022095 L15.949252,4.31491432 L11.7502221,6.74102047 C11.5954511,6.83044375 11.4047156,6.83044375 11.2499445,6.74102047 L7.05091439,4.31491416 L3.75008307,6.20110078 C3.68119663,6.24087233 3.61623544,6.28565091 3.55555202,6.33482495 L11.5000833,10.9304588 L19.4448159,6.33470851 Z M20.0000831,12.3644341 L16.5000833,14.3866562 L16.5000833,18.3665016 L19.2500836,16.7950751 C19.7137097,16.5274008 19.9995345,16.0329239 20.0000831,15.4980879 L20.0000831,12.3644341 Z M3.00008307,12.3644338 L3.00008307,15.4975751 C3.00063219,16.0329239 3.28645702,16.5274008 3.74815281,16.7939664 L6.50008334,18.3665003 L6.50008334,14.3866562 L3.00008307,12.3644338 Z M8.05588201,3.74064776 L11.5000833,5.73063075 L14.9442858,3.7406471 L12.2500833,2.20110063 C11.7859817,1.93315144 11.214185,1.93315144 10.7481528,2.2022095 L8.05588201,3.74064776 Z" id="Combined-Shape" fill="#000000" fill-rule="nonzero"></path>
    </g>
</svg>
